gateways-e-adquirentes/mercado-pago-icon.svg

<svg enable-background="new 0 0 120 80" height="80" viewBox="0 0 120 80" width="120" xmlns="http://www.w3.org/2000/svg"><switch><foreignObject height="1" requiredExtensions="http://ns.adobe.com/AdobeIllustrator/10.0/" width="1"/><g><path d="m120 70c0 5.5-4.5 10-10 10h-100c-5.5 0-10-4.5-10-10v-60c0-5.5 4.5-10 10-10h100c5.5 0 10 4.5 10 10z" fill="#f5f5f5"/><path d="m110 0h-100c-5.5 0-10 4.5-10 10v60c0 5.5 4.5 10 10 10h100c5.5 0 10-4.5 10-10v-60c0-5.5-4.5-10-10-10zm0 2c4.412 0 8 3.588 8 8v60c0 4.412-3.588 8-8 8h-100c-4.412 0-8-3.588-8-8v-60c0-4.412 3.588-8 8-8z" fill="#fff"/><path d="m90.969 38.822c0-11.159-13.865-20.255-30.968-20.255-17.102 0-30.967 9.096-30.967 20.255 0 .288-.004 1.085-.004 1.186 0 11.838 12.118 21.426 30.966 21.426 18.965 0 30.972-9.586 30.972-21.424.001-.414.001-.652.001-1.188" fill="#060e9f"/><path d="m89.783 38.812c0 10.52-13.331 19.048-29.776 19.048s-29.776-8.528-29.776-19.048c0-10.521 13.331-19.05 29.776-19.05s29.776 8.529 29.776 19.05" fill="#00adee"/><g fill="#fff"><path d="m50.12 32.802c-.016.03-.313.337-.12.584.47.6 1.921.944 3.389.615.874-.196 1.994-1.087 3.079-1.948 1.175-.935 2.343-1.87 3.515-2.242 1.242-.395 2.037-.226 2.563-.067.577.172 1.254.552 2.336 1.363 2.037 1.532 10.23 8.683 11.645 9.919 1.14-.515 6.207-2.696 13.092-4.214-.598-3.671-2.831-7.029-6.217-9.779-4.719 1.983-10.488 3.017-16.128.262-.029-.012-3.081-1.457-6.092-1.385-4.475.103-6.414 2.04-8.465 4.091z"/><path d="m76.195 41.805c-.095-.086-9.632-8.431-11.793-10.055-1.25-.937-1.945-1.176-2.676-1.27-.381-.05-.905.021-1.273.122-1.005.274-2.319 1.152-3.486 2.078-1.208.962-2.347 1.868-3.404 2.105-1.35.303-3-.054-3.752-.563-.305-.205-.519-.442-.623-.683-.278-.644.235-1.159.319-1.246l2.632-2.847c.306-.305.614-.611.929-.911-.849.111-1.635.327-2.398.54-.954.269-1.871.523-2.799.523-.387 0-2.463-.34-2.856-.447-2.382-.652-4.472-1.286-7.595-2.744-3.741 2.785-6.243 6.268-6.966 10.103.538.142 1.404.4 1.767.481 8.467 1.882 11.104 3.822 11.582 4.226.518-.576 1.265-.941 2.099-.941.937.001 1.781.472 2.294 1.199.484-.383 1.154-.71 2.018-.709.393 0 .8.073 1.211.212.955.327 1.448.964 1.704 1.539.321-.145.715-.251 1.179-.25.455 0 .93.104 1.408.31 1.561.67 1.804 2.203 1.663 3.359.111-.013.223-.018.336-.018 1.851.001 3.357 1.506 3.356 3.358 0 .573-.146 1.112-.401 1.585.503.283 1.787.924 2.914.781.9-.113 1.242-.421 1.365-.594.084-.119.173-.258.09-.358l-2.389-2.654s-.393-.372-.264-.515c.135-.147.378.064.55.208 1.216 1.015 2.7 2.548 2.7 2.548.025.016.124.211.672.309.473.085 1.309.035 1.888-.44.146-.12.292-.27.414-.425-.009.007-.017.018-.026.021.611-.782-.068-1.573-.068-1.573l-2.789-3.132s-.399-.368-.263-.517c.121-.129.378.066.553.211.883.738 2.131 1.991 3.327 3.162.233.171 1.285.821 2.676-.093.844-.554 1.014-1.234.99-1.748-.059-.679-.589-1.163-.589-1.163l-3.81-3.83s-.402-.344-.26-.517c.116-.146.378.064.549.207 1.214 1.016 4.499 4.028 4.499 4.028.046.033 1.182.841 2.585-.052.501-.321.822-.804.849-1.366.05-.976-.638-1.554-.638-1.554"/><path d="m57.716 46.66c-.591-.007-1.237.344-1.321.293-.047-.031.036-.269.091-.406.057-.136.835-2.476-1.062-3.29-1.451-.624-2.338.078-2.643.395-.08.083-.116.076-.125-.029-.029-.422-.218-1.562-1.47-1.944-1.79-.548-2.941.702-3.233 1.152-.131-1.02-.993-1.812-2.05-1.813-1.148-.001-2.079.929-2.08 2.076 0 1.147.93 2.078 2.078 2.078.558.001 1.064-.222 1.437-.579.012.011.017.03.01.07-.087.513-.248 2.381 1.707 3.142.784.304 1.451.078 2.004-.31.165-.116.191-.067.168.088-.071.48.019 1.509 1.46 2.093 1.097.446 1.746-.01 2.171-.403.185-.169.236-.142.245.119.052 1.39 1.207 2.493 2.609 2.495 1.444.001 2.615-1.167 2.616-2.61.002-1.446-1.168-2.601-2.612-2.617"/></g><path d="m76.564 40.805c-2.938-2.564-9.727-8.466-11.566-9.847-1.051-.79-1.767-1.208-2.396-1.395-.282-.085-.674-.182-1.177-.183-.468 0-.97.084-1.494.251-1.188.376-2.372 1.317-3.517 2.227l-.059.046c-1.067.848-2.169 1.725-3.004 1.912-.364.082-.739.124-1.112.124-.935-.001-1.774-.271-2.088-.672-.052-.066-.019-.174.103-.329l.016-.02 2.584-2.785c2.024-2.024 3.936-3.935 8.337-4.036.072-.002.147-.003.219-.003 2.739.002 5.478 1.228 5.785 1.37 2.568 1.253 5.219 1.889 7.885 1.891 2.778.001 5.644-.687 8.657-2.074-.337-.282-.687-.557-1.048-.827-2.647 1.148-5.169 1.727-7.602 1.726-2.485-.002-4.968-.599-7.379-1.775-.127-.061-3.151-1.486-6.297-1.488-.083 0-.166.001-.248.003-3.696.087-5.779 1.399-7.179 2.55-1.362.033-2.537.361-3.582.654-.933.259-1.738.484-2.524.484-.324 0-.906-.03-.959-.032-.903-.027-5.455-1.144-9.077-2.515-.37.262-.725.532-1.072.807 3.783 1.551 8.386 2.751 9.839 2.844.404.027.835.072 1.266.073.961 0 1.921-.269 2.849-.529.548-.154 1.153-.322 1.789-.444-.17.167-.339.336-.509.506l-2.626 2.84c-.207.209-.655.766-.36 1.451.118.277.356.541.691.766.626.422 1.746.706 2.787.707.394 0 .768-.039 1.112-.116 1.1-.247 2.255-1.167 3.478-2.139.975-.774 2.359-1.757 3.419-2.046.297-.081.66-.131.952-.131.088.001.17.003.247.014.7.089 1.378.327 2.587 1.234 2.155 1.619 11.693 9.963 11.787 10.045.006.005.615.53.572 1.402-.023.486-.293.918-.762 1.217-.407.258-.828.39-1.252.39-.637-.001-1.076-.3-1.105-.32-.035-.029-3.303-3.025-4.505-4.031-.192-.158-.378-.302-.566-.302-.101-.001-.19.042-.25.118-.19.233.023.556.272.769l3.817 3.837c.005.004.476.445.527 1.034.03.636-.274 1.168-.906 1.582-.45.297-.906.447-1.353.447-.586 0-.997-.267-1.089-.331l-.548-.54c-1.001-.985-2.034-2.003-2.79-2.634-.184-.153-.381-.295-.569-.295-.093 0-.177.034-.24.102-.087.096-.146.269.068.555.089.117.193.215.193.215l2.786 3.129c.023.028.574.683.063 1.335l-.099.125c-.083.092-.174.177-.259.25-.476.39-1.11.432-1.362.432-.134 0-.264-.012-.377-.033-.275-.049-.459-.126-.549-.231l-.033-.035c-.153-.157-1.557-1.591-2.719-2.561-.153-.128-.344-.29-.542-.29-.098 0-.184.038-.252.112-.23.252.115.628.261.766l2.376 2.62c-.003.023-.033.077-.091.16-.085.118-.373.406-1.235.514-.103.014-.21.019-.315.019-.889 0-1.837-.431-2.325-.69.222-.47.338-.987.338-1.506.001-1.956-1.587-3.547-3.543-3.548-.041 0-.086.001-.128.003.064-.893-.062-2.583-1.797-3.328-.499-.216-.997-.326-1.482-.326-.379 0-.743.065-1.086.196-.36-.699-.956-1.208-1.735-1.473-.43-.149-.858-.224-1.272-.224-.722 0-1.387.212-1.981.634-.568-.707-1.427-1.126-2.331-1.126-.791 0-1.552.317-2.116.875-.74-.565-3.673-2.428-11.524-4.211-.381-.086-1.253-.336-1.788-.492-.088.425-.157.855-.201 1.288 0 0 1.448.347 1.733.411 8.021 1.781 10.671 3.634 11.119 3.984-.152.364-.23.757-.231 1.154-.001 1.657 1.346 3.006 3.005 3.008.186 0 .37-.016.551-.05.25 1.219 1.048 2.144 2.267 2.618.356.137.717.207 1.071.207.229 0 .459-.028.684-.086.225.572.732 1.285 1.865 1.745.397.16.795.244 1.18.244.315 0 .624-.055.918-.164.543 1.322 1.835 2.198 3.275 2.198.954.001 1.871-.388 2.539-1.076.572.318 1.78.894 3.001.895.158 0 .306-.012.454-.029 1.212-.153 1.776-.627 2.036-.996.046-.064.089-.132.124-.203.286.083.601.149.961.15.662 0 1.297-.226 1.94-.694.631-.455 1.079-1.108 1.143-1.664.001-.008.003-.016.004-.024.213.044.431.066.649.066.682 0 1.352-.212 1.992-.632 1.236-.81 1.45-1.868 1.43-2.561.216.046.437.068.657.068.64 0 1.268-.192 1.867-.574.766-.489 1.227-1.239 1.297-2.111.048-.593-.099-1.191-.412-1.705 2.07-.892 6.801-2.618 12.372-3.874-.033-.432-.096-.859-.173-1.283-6.738 1.503-11.768 3.68-13.028 4.24m-18.848 10.895c-1.309-.001-2.374-1.018-2.421-2.315-.004-.111-.015-.406-.265-.406-.103 0-.192.062-.295.154-.288.267-.654.538-1.19.538-.243 0-.506-.057-.784-.17-1.382-.56-1.402-1.51-1.345-1.891.016-.102.021-.208-.05-.29l-.085-.076h-.087c-.07 0-.142.029-.24.098-.4.281-.783.417-1.173.417-.215 0-.435-.043-.655-.128-1.82-.708-1.676-2.426-1.588-2.943.013-.105-.013-.186-.079-.24l-.128-.106-.12.115c-.355.342-.819.529-1.307.529-1.043-.001-1.891-.848-1.89-1.891s.85-1.889 1.892-1.888c.942 0 1.744.708 1.864 1.649l.065.508.279-.43c.031-.05.795-1.205 2.199-1.204.267 0 .543.043.82.129 1.119.341 1.309 1.357 1.338 1.779.02.247.195.258.229.258.097 0 .168-.062.219-.114.211-.22.671-.587 1.391-.587.329.001.68.079 1.042.235 1.779.763.972 3.024.962 3.047-.153.375-.159.54-.015.636l.07.033h.052c.08 0 .18-.035.345-.091.242-.083.608-.21.949-.209h.001c1.339.015 2.429 1.105 2.428 2.429 0 1.339-1.09 2.425-2.428 2.425z" fill="#060e9f"/></g></switch></svg>

<?xml version="1.0" encoding="UTF-8"?>
<svg width="120px" height="80px" viewBox="0 0 120 80" version="1.1" xmlns="http://www.w3.org/2000/svg" xmlns:xlink="http://www.w3.org/1999/xlink">
    <!-- Generator: Sketch 52.4 (67378) - http://www.bohemiancoding.com/sketch -->
    <title>mercado-pago-icon</title>
    <desc>Created with Sketch.</desc>
    <g id="Page-1" stroke="none" stroke-width="1" fill="none" fill-rule="evenodd">
        <g id="mercado-pago-icon">
            <path d="M120,70 C120,75.5 115.5,80 110,80 L10,80 C4.5,80 0,75.5 0,70 L0,10 C0,4.5 4.5,0 10,0 L110,0 C115.5,0 120,4.5 120,10 L120,70 Z" id="Path" fill="#F5F5F5"></path>
            <path d="M110,0 L10,0 C4.5,0 0,4.5 0,10 L0,70 C0,75.5 4.5,80 10,80 L110,80 C115.5,80 120,75.5 120,70 L120,10 C120,4.5 115.5,0 110,0 Z M110,2 C114.412,2 118,5.588 118,10 L118,70 C118,74.412 114.412,78 110,78 L10,78 C5.588,78 2,74.412 2,70 L2,10 C2,5.588 5.588,2 10,2 L110,2 Z" id="Shape" fill="#D0D0D0" fill-rule="nonzero"></path>
            <path d="M90.969,38.822 C90.969,27.663 77.104,18.567 60.001,18.567 C42.899,18.567 29.034,27.663 29.034,38.822 C29.034,39.11 29.03,39.907 29.03,40.008 C29.03,51.846 41.148,61.434 59.996,61.434 C78.961,61.434 90.968,51.848 90.968,40.01 C90.969,39.596 90.969,39.358 90.969,38.822" id="Path" fill="#060E9F"></path>
            <path d="M89.783,38.812 C89.783,49.332 76.452,57.86 60.007,57.86 C43.562,57.86 30.231,49.332 30.231,38.812 C30.231,28.291 43.562,19.762 60.007,19.762 C76.452,19.762 89.783,28.291 89.783,38.812" id="Path" fill="#00ADEE"></path>
            <path d="M50.12,32.802 L52.717,30.001 C54.768,27.95 56.707,26.013 61.182,25.91 C64.193,25.838 67.245,27.283 67.274,27.295 C72.914,30.05 78.683,29.016 83.402,27.033 C86.788,29.783 89.021,33.141 89.619,36.812 C82.734,38.33 77.667,40.511 76.527,41.026 C75.112,39.79 66.919,32.639 64.882,31.107 C63.8,30.296 63.123,29.916 62.546,29.744 C62.02,29.585 61.225,29.416 59.983,29.811 C58.811,30.183 57.643,31.118 56.468,32.053 C55.383,32.914 54.263,33.805 53.389,34.001 C51.921,34.33 50.47,33.986 50,33.386 C49.807,33.139 50.104,32.832 50.12,32.802 Z M76.195,41.805 C76.195,41.805 76.883,42.383 76.833,43.359 C76.806,43.921 76.485,44.404 75.984,44.725 C74.581,45.618 73.445,44.81 73.399,44.777 C73.399,44.777 70.114,41.765 68.9,40.749 C68.729,40.606 68.467,40.396 68.351,40.542 C68.209,40.715 68.611,41.059 68.611,41.059 L72.421,44.889 C72.421,44.889 72.951,45.373 73.01,46.052 C73.034,46.566 72.864,47.246 72.02,47.8 C70.629,48.714 69.577,48.064 69.344,47.893 C68.148,46.722 66.9,45.469 66.017,44.731 C65.842,44.586 65.585,44.391 65.464,44.52 C65.328,44.669 65.727,45.037 65.727,45.037 L68.516,48.169 C68.516,48.169 69.195,48.96 68.584,49.742 C68.593,49.739 68.601,49.728 68.61,49.721 C68.488,49.876 68.342,50.026 68.196,50.146 C67.617,50.621 66.781,50.671 66.308,50.586 C65.76,50.488 65.661,50.293 65.636,50.277 C65.636,50.277 64.152,48.744 62.936,47.729 C62.764,47.585 62.521,47.374 62.386,47.521 C62.257,47.664 62.65,48.036 62.65,48.036 L65.039,50.69 C65.122,50.79 65.033,50.929 64.949,51.048 C64.826,51.221 64.484,51.529 63.584,51.642 C62.457,51.785 61.173,51.144 60.67,50.861 C60.925,50.388 61.071,49.849 61.071,49.276 C61.072,47.424 59.566,45.919 57.715,45.918 C57.602,45.918 57.49,45.923 57.379,45.936 C57.52,44.78 57.277,43.247 55.716,42.577 C55.238,42.371 54.763,42.267 54.308,42.267 C53.844,42.266 53.45,42.372 53.129,42.517 C52.873,41.942 52.38,41.305 51.425,40.978 C51.014,40.839 50.607,40.766 50.214,40.766 C49.35,40.765 48.68,41.092 48.196,41.475 C47.683,40.748 46.839,40.277 45.902,40.276 C45.068,40.276 44.321,40.641 43.803,41.217 C43.325,40.813 40.688,38.873 32.221,36.991 C31.858,36.91 30.992,36.652 30.454,36.51 C31.177,32.675 33.679,29.192 37.42,26.407 C40.543,27.865 42.633,28.499 45.015,29.151 C45.408,29.258 47.484,29.598 47.871,29.598 C48.799,29.598 49.716,29.344 50.67,29.075 C51.433,28.862 52.219,28.646 53.068,28.535 C52.753,28.835 52.445,29.141 52.139,29.446 L49.507,32.293 C49.423,32.38 48.91,32.895 49.188,33.539 C49.292,33.78 49.506,34.017 49.811,34.222 C50.563,34.731 52.213,35.088 53.563,34.785 C54.62,34.548 55.759,33.642 56.967,32.68 C58.134,31.754 59.448,30.876 60.453,30.602 C60.821,30.501 61.345,30.43 61.726,30.48 C62.457,30.574 63.152,30.813 64.402,31.75 C66.563,33.374 76.1,41.719 76.195,41.805 Z M57.716,46.66 C59.16,46.676 60.33,47.831 60.328,49.277 C60.327,50.72 59.156,51.888 57.712,51.887 C56.31,51.885 55.155,50.782 55.103,49.392 C55.094,49.131 55.043,49.104 54.858,49.273 C54.433,49.666 53.784,50.122 52.687,49.676 C51.246,49.092 51.156,48.063 51.227,47.583 C51.25,47.428 51.224,47.379 51.059,47.495 C50.506,47.883 49.839,48.109 49.055,47.805 C47.1,47.044 47.261,45.176 47.348,44.663 C47.355,44.623 47.35,44.604 47.338,44.593 C46.965,44.95 46.459,45.173 45.901,45.172 C44.753,45.172 43.823,44.241 43.823,43.094 C43.824,41.947 44.755,41.017 45.903,41.018 C46.96,41.019 47.822,41.811 47.953,42.831 C48.245,42.381 49.396,41.131 51.186,41.679 C52.438,42.061 52.627,43.201 52.656,43.623 C52.665,43.728 52.701,43.735 52.781,43.652 C53.086,43.335 53.973,42.633 55.424,43.257 C57.321,44.071 56.543,46.411 56.486,46.547 C56.431,46.684 56.348,46.922 56.395,46.953 C56.479,47.004 57.125,46.653 57.716,46.66 Z" id="Combined-Shape" fill="#FFFFFF"></path>
            <path d="M76.564,40.805 C73.626,38.241 66.837,32.339 64.998,30.958 C63.947,30.168 63.231,29.75 62.602,29.563 C62.32,29.478 61.928,29.381 61.425,29.38 C60.957,29.38 60.455,29.464 59.931,29.631 C58.743,30.007 57.559,30.948 56.414,31.858 L56.355,31.904 C55.288,32.752 54.186,33.629 53.351,33.816 C52.987,33.898 52.612,33.94 52.239,33.94 C51.304,33.939 50.465,33.669 50.151,33.268 C50.099,33.202 50.132,33.094 50.254,32.939 L50.27,32.919 L52.854,30.134 C54.878,28.11 56.79,26.199 61.191,26.098 C61.263,26.096 61.338,26.095 61.41,26.095 C64.149,26.097 66.888,27.323 67.195,27.465 C69.763,28.718 72.414,29.354 75.08,29.356 C77.858,29.357 80.724,28.669 83.737,27.282 C83.4,27 83.05,26.725 82.689,26.455 C80.042,27.603 77.52,28.182 75.087,28.181 C72.602,28.179 70.119,27.582 67.708,26.406 C67.581,26.345 64.557,24.92 61.411,24.918 C61.328,24.918 61.245,24.919 61.163,24.921 C57.467,25.008 55.384,26.32 53.984,27.471 C52.622,27.504 51.447,27.832 50.402,28.125 C49.469,28.384 48.664,28.609 47.878,28.609 C47.554,28.609 46.972,28.579 46.919,28.577 C46.016,28.55 41.464,27.433 37.842,26.062 C37.472,26.324 37.117,26.594 36.77,26.869 C40.553,28.42 45.156,29.62 46.609,29.713 C47.013,29.74 47.444,29.785 47.875,29.786 C48.836,29.786 49.796,29.517 50.724,29.257 C51.272,29.103 51.877,28.935 52.513,28.813 C52.343,28.98 52.174,29.149 52.004,29.319 L49.378,32.159 C49.171,32.368 48.723,32.925 49.018,33.61 C49.136,33.887 49.374,34.151 49.709,34.376 C50.335,34.798 51.455,35.082 52.496,35.083 C52.89,35.083 53.264,35.044 53.608,34.967 C54.708,34.72 55.863,33.8 57.086,32.828 C58.061,32.054 59.445,31.071 60.505,30.782 C60.802,30.701 61.165,30.651 61.457,30.651 C61.545,30.652 61.627,30.654 61.704,30.665 C62.404,30.754 63.082,30.992 64.291,31.899 C66.446,33.518 75.984,41.862 76.078,41.944 C76.084,41.949 76.693,42.474 76.65,43.346 C76.627,43.832 76.357,44.264 75.888,44.563 C75.481,44.821 75.06,44.953 74.636,44.953 C73.999,44.952 73.56,44.653 73.531,44.633 C73.496,44.604 70.228,41.608 69.026,40.602 C68.834,40.444 68.648,40.3 68.46,40.3 C68.359,40.299 68.27,40.342 68.21,40.418 C68.02,40.651 68.233,40.974 68.482,41.187 L72.299,45.024 C72.304,45.028 72.775,45.469 72.826,46.058 C72.856,46.694 72.552,47.226 71.92,47.64 C71.47,47.937 71.014,48.087 70.567,48.087 C69.981,48.087 69.57,47.82 69.478,47.756 L68.93,47.216 C67.929,46.231 66.896,45.213 66.14,44.582 C65.956,44.429 65.759,44.287 65.571,44.287 C65.478,44.287 65.394,44.321 65.331,44.389 C65.244,44.485 65.185,44.658 65.399,44.944 C65.488,45.061 65.592,45.159 65.592,45.159 L68.378,48.288 C68.401,48.316 68.952,48.971 68.441,49.623 L68.342,49.748 C68.259,49.84 68.168,49.925 68.083,49.998 C67.607,50.388 66.973,50.43 66.721,50.43 C66.587,50.43 66.457,50.418 66.344,50.397 C66.069,50.348 65.885,50.271 65.795,50.166 L65.762,50.131 C65.609,49.974 64.205,48.54 63.043,47.57 C62.89,47.442 62.699,47.28 62.501,47.28 C62.403,47.28 62.317,47.318 62.249,47.392 C62.019,47.644 62.364,48.02 62.51,48.158 L64.886,50.778 C64.883,50.801 64.853,50.855 64.795,50.938 C64.71,51.056 64.422,51.344 63.56,51.452 C63.457,51.466 63.35,51.471 63.245,51.471 C62.356,51.471 61.408,51.04 60.92,50.781 C61.142,50.311 61.258,49.794 61.258,49.275 C61.259,47.319 59.671,45.728 57.715,45.727 C57.674,45.727 57.629,45.728 57.587,45.73 C57.651,44.837 57.525,43.147 55.79,42.402 C55.291,42.186 54.793,42.076 54.308,42.076 C53.929,42.076 53.565,42.141 53.222,42.272 C52.862,41.573 52.266,41.064 51.487,40.799 C51.057,40.65 50.629,40.575 50.215,40.575 C49.493,40.575 48.828,40.787 48.234,41.209 C47.666,40.502 46.807,40.083 45.903,40.083 C45.112,40.083 44.351,40.4 43.787,40.958 C43.047,40.393 40.114,38.53 32.263,36.747 C31.882,36.661 31.01,36.411 30.475,36.255 C30.387,36.68 30.318,37.11 30.274,37.543 C30.274,37.543 31.722,37.89 32.007,37.954 C40.028,39.735 42.678,41.588 43.126,41.938 C42.974,42.302 42.896,42.695 42.895,43.092 C42.894,44.749 44.241,46.098 45.9,46.1 C46.086,46.1 46.27,46.084 46.451,46.05 C46.701,47.269 47.499,48.194 48.718,48.668 C49.074,48.805 49.435,48.875 49.789,48.875 C50.018,48.875 50.248,48.847 50.473,48.789 C50.698,49.361 51.205,50.074 52.338,50.534 C52.735,50.694 53.133,50.778 53.518,50.778 C53.833,50.778 54.142,50.723 54.436,50.614 C54.979,51.936 56.271,52.812 57.711,52.812 C58.665,52.813 59.582,52.424 60.25,51.736 C60.822,52.054 62.03,52.63 63.251,52.631 C63.409,52.631 63.557,52.619 63.705,52.602 C64.917,52.449 65.481,51.975 65.741,51.606 C65.787,51.542 65.83,51.474 65.865,51.403 C66.151,51.486 66.466,51.552 66.826,51.553 C67.488,51.553 68.123,51.327 68.766,50.859 C69.397,50.404 69.845,49.751 69.909,49.195 C69.91,49.187 69.912,49.179 69.913,49.171 C70.126,49.215 70.344,49.237 70.562,49.237 C71.244,49.237 71.914,49.025 72.554,48.605 C73.79,47.795 74.004,46.737 73.984,46.044 C74.2,46.09 74.421,46.112 74.641,46.112 C75.281,46.112 75.909,45.92 76.508,45.538 C77.274,45.049 77.735,44.299 77.805,43.427 C77.853,42.834 77.706,42.236 77.393,41.722 C79.463,40.83 84.194,39.104 89.765,37.848 C89.732,37.416 89.669,36.989 89.592,36.565 C82.854,38.068 77.824,40.245 76.564,40.805 Z M57.716,51.7 C56.407,51.699 55.342,50.682 55.295,49.385 C55.291,49.274 55.28,48.979 55.03,48.979 C54.927,48.979 54.838,49.041 54.735,49.133 C54.447,49.4 54.081,49.671 53.545,49.671 C53.302,49.671 53.039,49.614 52.761,49.501 C51.379,48.941 51.359,47.991 51.416,47.61 C51.432,47.508 51.437,47.402 51.366,47.32 L51.281,47.244 L51.194,47.244 C51.124,47.244 51.052,47.273 50.954,47.342 C50.554,47.623 50.171,47.759 49.781,47.759 C49.566,47.759 49.346,47.716 49.126,47.631 C47.306,46.923 47.45,45.205 47.538,44.688 C47.551,44.583 47.525,44.502 47.459,44.448 L47.331,44.342 L47.211,44.457 C46.856,44.799 46.392,44.986 45.904,44.986 C44.861,44.985 44.013,44.138 44.014,43.095 C44.015,42.052 44.864,41.206 45.906,41.207 C46.848,41.207 47.65,41.915 47.77,42.856 L47.835,43.364 L48.114,42.934 C48.145,42.884 48.909,41.729 50.313,41.73 C50.58,41.73 50.856,41.773 51.133,41.859 C52.252,42.2 52.442,43.216 52.471,43.638 C52.491,43.885 52.666,43.896 52.7,43.896 C52.797,43.896 52.868,43.834 52.919,43.782 C53.13,43.562 53.59,43.195 54.31,43.195 C54.639,43.196 54.99,43.274 55.352,43.43 C57.131,44.193 56.324,46.454 56.314,46.477 C56.161,46.852 56.155,47.017 56.299,47.113 L56.369,47.146 L56.421,47.146 C56.501,47.146 56.601,47.111 56.766,47.055 C57.008,46.972 57.374,46.845 57.715,46.846 L57.716,46.846 C59.055,46.861 60.145,47.951 60.144,49.275 C60.144,50.614 59.054,51.7 57.716,51.7 Z" id="Shape" fill="#060E9F" fill-rule="nonzero"></path>
        </g>
    </g>
</svg>
